!!!OTL: Der Tag, der ist so wohl vergang'n (Band 1), S. 207
!!!id: P0847
**kern
*clefG2
*k[b-]
*F:
{8c
=1
4f
8f
=2
4f
8f
=3
4g
8a
=4
4f}
=5
{8g
=6
8g
8a
8cc
=7
4b-
8g
=8
4f
8a
=9
4g}
=10
{8f
=11
8g
8a
8b-
=12
8cc
8cc
8cc
=13
8a
8f
16a
16a
=14
8g
8f}
=15
{8f
=16
8cc
8cc
8cc
=17
8a
8f
8f
=18
8c
8d
8e
=19
4f}
==
*-
!!!minrhy: 16
!!!meters: 3/8 ]  ZZ[4
!!!cut: Der Tag, der ist so wohl vergang'n (Band 1), S. 207
!!!reg: Lothringen
!!!trd: PINCK, Louis: Verklingende Weisen, Bd 1, Metz 1928
!!!rhy1: X_  X__X_  X__X_  X__X_  X__   (x2)
!!!rhy2: X_  X_X_X_  X__X_  X__X_  X__
!!!key: P0847  16  F 3/8 ]  ZZ[4
!!!mod: HEPTATONIK IONISCH]  AMBITUS[8
!!!kad: 1211
!!!akz: 1121_2412_2532_53-51_
!!!fot: 'a__b__c__d__
!!!for: 'a__b__c__d__
!!!fok: '^a_^__^__~__
!! PHRAS[AUFTAKTIG]
!!!fkt: Liebe, Fenstergang, Beischlaf
!! LOTH VKL
!! PR[20] 2K[3] 2G[20] 3K[5] 3G[7] 4A[3] 4Ü[0] 5A[0] 6K[0] 6G[0]
!! 7K[0] 7G[0] 8A[0] MEHR[0] SI[39] ABS[59] SR[24] SP[15]
!! ST[11] 2k[3] 2g[29] 3k[7] 3g[2] 4d[0] 4ü[0] 5d[0] 6k[0] 6g[0]
!! 7k[0] 7g[0] 8d[0] mehr[0] si[41] dm[-2] sr[32] sp[8]
!! 1F[2] 2F[45] 3F[45] 4F[2] LF[0] 2P[2] 3P[0] 4P[0] TRI[0] DF[6] AB[60]
!! TF[0] U3K[0] U3[0] U4[0] U4Ü[0] U5[2] U6K[0] U6[0] U7K[0] U7[0]
!! N1[8] N2K[0] N2[15] N3K[0] N3[27] N4[12] N4Ü[0] N5[28] N6K[0] N6[8]
!!!n7k: 0] N7[0] O1[0] O2K[0] O2[0] O3K[0] O3[0] HÖ[0
